X: 37467
T: Slide Dubh
R: slide
M: 12/8
K: Dmajor
|:f2d e2d Bcd A2A|Bcd A2d B2d A2d|
f2d e2d Bcd A2B|1 d2e fef d3 d2e:|2 d2e fef d3 d2A||
|:d2e fef a2f afe|d2e fed B2d A2B|
d2e fef a2f agf|1 d2e f2e d3 d2A:|2 d2e f2e d3 d2e||

